packages/tokens/icons/relevanceListingPage/size32Px.svg

<svg viewBox="0 0 32 32" fill="none" xmlns="http://www.w3.org/2000/svg" width="1em" height="1em"><path d="M20.5 5.5L4.5 5.5C3.39543 5.5 2.5 6.39543 2.5 7.5L2.5 24.5C2.5 25.6046 3.39543 26.5 4.5 26.5L27.5 26.5C28.6046 26.5 29.5 25.6046 29.5 24.5L29.5 8.5" stroke="currentColor" stroke-linecap="round"/><path d="M3 9.5L17.7188 9.5" stroke="currentColor" stroke-linecap="round"/><circle cx="4.5" cy="7.5" r="0.5" fill="currentColor"/><circle cx="6.5" cy="7.5" r="0.5" fill="currentColor"/><circle cx="8.5" cy="7.5" r="0.5" fill="currentColor"/><rect x="5.5" y="20.5" width="5" height="4" rx="0.5" stroke="currentColor"/><path d="M13.5 23.5H21.5M13.5 21.5L25.5 21.5" stroke="currentColor" stroke-linecap="round"/><rect x="5.5" y="13.5" width="5" height="4" rx="0.5" stroke="currentColor"/><path d="M13.5 16.5H21.5M13.5 14.5L25.5 14.5" stroke="currentColor" stroke-linecap="round"/><path d="M26.7328 4.67183L26.8116 4.85566L26.9954 4.93445L28.7915 5.70419L25.5498 8.94589C25.4052 9.09046 25.1872 9.13244 24.9993 9.05191L23.5144 8.41551C23.3963 8.36493 23.3023 8.2709 23.2517 8.1529L22.6153 6.66797C22.5348 6.48005 22.5768 6.26203 22.7214 6.11746L25.9631 2.87576L26.7328 4.67183Z" stroke="currentColor"/><path d="M26.8389 4.82861L19.7678 11.8997" stroke="currentColor" stroke-linecap="round"/></svg>

<svg xmlns="http://www.w3.org/2000/svg" fill="none" viewBox="0 0 32 32" width="1em" height="1em"><path stroke="currentColor" stroke-linecap="round" d="M20.5 5.5h-16a2 2 0 0 0-2 2v17a2 2 0 0 0 2 2h23a2 2 0 0 0 2-2v-16M3 9.5h14.719"/><circle cx="4.5" cy="7.5" r=".5" fill="currentColor"/><circle cx="6.5" cy="7.5" r=".5" fill="currentColor"/><circle cx="8.5" cy="7.5" r=".5" fill="currentColor"/><rect width="5" height="4" x="5.5" y="20.5" stroke="currentColor" rx=".5"/><path stroke="currentColor" stroke-linecap="round" d="M13.5 23.5h8m-8-2h12"/><rect width="5" height="4" x="5.5" y="13.5" stroke="currentColor" rx=".5"/><path stroke="currentColor" stroke-linecap="round" d="M13.5 16.5h8m-8-2h12"/><path stroke="currentColor" d="m26.733 4.672.079.184.183.078 1.796.77-3.241 3.242a.5.5 0 0 1-.55.106l-1.486-.636a.5.5 0 0 1-.262-.263l-.637-1.485a.5.5 0 0 1 .106-.55l3.242-3.242.77 1.796Z"/><path stroke="currentColor" stroke-linecap="round" d="m26.839 4.829-7.071 7.07"/></svg>
